static/img/fuel-icon.svg

<svg xmlns="http://www.w3.org/2000/svg" width="200" height="200"><path fill="none" d="M0 87c2.78-20.36 12.38-39.07 26-55 1.9-2.22 3.83-4.15 6-6C47.99 12.34 66.65 2.79 87 0H0z"/><path fill="none" stroke="#0DF38D" stroke-opacity=".99" stroke-width=".3" d="m32 26-6 6C12.38 47.93 2.78 66.64 0 87v26c2.78 20.36 12.38 39.07 26 55l6 6c15.99 13.66 34.65 23.21 55 26h26c20.36-2.78 39.07-12.38 55-26l6-6c13.14-15.37 24.59-34.34 25-55 .05-2.53-.82-6.29 1-8V87c-2.78-20.37-12.37-39.05-26-55l-6-6c-15.97-13.65-34.66-23.21-55-26H87C66.65 2.79 47.99 12.34 32 26m47 73c-3.38 2.12-4.96 2.45-8-1-4.22-4.79-8.87-18.22-11.31-23.69-2.43-5.48-14.79-20.35-4.61-23.23C65.27 48.2 79.95 52.44 91 51s24.71 1.08 36 0a866 866 0 0 1-48 48m29 1c-4.98 1.51-11.32.95-17 1-.27-1.28.77-2.72 2-3 7.01-11.69 19.59-17.09 28.08-27.92S142.3 46.27 159 51c-7.5 8.81-16.22 17.16-24.75 25.25-8.53 8.08-15.66 18.52-26.25 23.75m-10 12c-13.81 16.67-31.53 31.57-47 47 .62-8.08-.83-18.11 0-26s-2.93-18.51 3-23c12.6-6.51 33.11 2.8 47-1-.67 1.2-1.64 2.58-3 3Z"/><path fill="none" d="M168 26c2.22 1.9 4.15 3.83 6 6 13.63 15.95 23.22 34.63 26 55V0h-87c20.34 2.79 39.03 12.35 55 26"/><path fill="none" stroke="#B8FAE2" stroke-opacity=".06" stroke-width=".3" d="m26 32 6-6c-2.17 1.85-4.1 3.78-6 6Zm148 0c-1.85-2.17-3.78-4.1-6-6z"/><path fill="none" stroke="#000" stroke-width=".3" d="M71 98c2.49 2.13 5.19 2.15 8 1a866 866 0 0 0 48-48c-11.29 1.08-24.95-1.44-36 0s-25.73-2.8-35.92.08c-10.18 2.88 2.18 17.75 4.61 23.23C62.13 79.78 66.78 93.21 71 98Z"/><path fill="none" stroke="#010201" stroke-width=".3" d="M93 98c-.52 3.09 11.2 2.64 15 2 10.59-5.23 17.72-15.67 26.25-23.75C142.78 68.16 151.5 59.81 159 51c-16.7-4.73-29.43 8.25-37.92 19.08S100.01 86.31 93 98Z"/><path fill="none" stroke="#0F6E40" stroke-width=".3" d="M79 99c-2.81 1.15-5.51 1.13-8-1 3.04 3.45 4.62 3.12 8 1Z"/><path fill="none" stroke="#0F693D" stroke-width=".3" d="M108 100c-3.8.64-15.52 1.09-15-2-1.23.28-2.27 1.72-2 3 5.68-.05 12.02.51 17-1Z"/><path fill="none" stroke="#62EEB2" stroke-opacity=".42" stroke-width=".3" d="M199 113c0 .01 1 0 1 0v-8c-1.82 1.71-.95 5.47-1 8Z"/><path fill="none" stroke="#0A5C31" stroke-width=".3" d="M54 110c5.51-1.86 18.73.72 24 0s20.43-.89 20 2c1.36-.42 2.33-1.8 3-3-13.89 3.8-34.4-5.51-47 1Z"/><path fill="none" stroke="#000" stroke-width=".3" d="M98 112c.43-2.89-14.73-2.72-20-2s-18.49-1.86-24 0c-5.93 4.49-2.17 15.11-3 23s.62 17.92 0 26c15.47-15.43 33.19-30.33 47-47Z"/><path fill="none" d="M0 200h87c-20.35-2.79-39.01-12.34-55-26-2.22-1.9-4.15-3.83-6-6-13.62-15.93-23.22-34.64-26-55zm174-32c-1.9 2.22-3.83 4.15-6 6-15.93 13.62-34.64 23.22-55 26h87v-87s-1 .01-1 0c-.41 20.66-11.86 39.63-25 55"/><path fill="none" stroke="#B4FAE2" stroke-opacity=".06" stroke-width=".3" d="m32 174-6-6c1.85 2.17 3.78 4.1 6 6Z"/><path fill="none" stroke="#B6FAE2" stroke-opacity=".06" stroke-width=".3" d="M168 174c2.17-1.85 4.1-3.78 6-6z"/><path fill="none" stroke="None" d="M0 87c2.78-20.36 12.38-39.07 26-55 1.9-2.22 3.83-4.15 6-6C47.99 12.34 66.65 2.79 87 0H0z"/><path fill="#0DF38D" fill-opacity=".99" stroke="None" d="m32 26-6 6C12.38 47.93 2.78 66.64 0 87v26c2.78 20.36 12.38 39.07 26 55l6 6c15.99 13.66 34.65 23.21 55 26h26c20.36-2.78 39.07-12.38 55-26l6-6c13.14-15.37 24.59-34.34 25-55 .05-2.53-.82-6.29 1-8V87c-2.78-20.37-12.37-39.05-26-55l-6-6c-15.97-13.65-34.66-23.21-55-26H87C66.65 2.79 47.99 12.34 32 26m47 73c-3.38 2.12-4.96 2.45-8-1-4.22-4.79-8.87-18.22-11.31-23.69-2.43-5.48-14.79-20.35-4.61-23.23C65.27 48.2 79.95 52.44 91 51s24.71 1.08 36 0a866 866 0 0 1-48 48m29 1c-4.98 1.51-11.32.95-17 1-.27-1.28.77-2.72 2-3 7.01-11.69 19.59-17.09 28.08-27.92S142.3 46.27 159 51c-7.5 8.81-16.22 17.16-24.75 25.25-8.53 8.08-15.66 18.52-26.25 23.75m-10 12c-13.81 16.67-31.53 31.57-47 47 .62-8.08-.83-18.11 0-26s-2.93-18.51 3-23c12.6-6.51 33.11 2.8 47-1-.67 1.2-1.64 2.58-3 3Z"/><path fill="none" stroke="None" d="M168 26c2.22 1.9 4.15 3.83 6 6 13.63 15.95 23.22 34.63 26 55V0h-87c20.34 2.79 39.03 12.35 55 26Z"/><path fill="#B8FAE2" fill-opacity=".06" stroke="None" d="m26 32 6-6c-2.17 1.85-4.1 3.78-6 6Zm148 0c-1.85-2.17-3.78-4.1-6-6z"/><path stroke="None" d="M71 98c2.49 2.13 5.19 2.15 8 1a866 866 0 0 0 48-48c-11.29 1.08-24.95-1.44-36 0s-25.73-2.8-35.92.08c-10.18 2.88 2.18 17.75 4.61 23.23C62.13 79.78 66.78 93.21 71 98Z"/><path fill="#010201" stroke="None" d="M93 98c-.52 3.09 11.2 2.64 15 2 10.59-5.23 17.72-15.67 26.25-23.75C142.78 68.16 151.5 59.81 159 51c-16.7-4.73-29.43 8.25-37.92 19.08S100.01 86.31 93 98Z"/><path fill="#0F6E40" stroke="None" d="M79 99c-2.81 1.15-5.51 1.13-8-1 3.04 3.45 4.62 3.12 8 1Z"/><path fill="#0F693D" stroke="None" d="M108 100c-3.8.64-15.52 1.09-15-2-1.23.28-2.27 1.72-2 3 5.68-.05 12.02.51 17-1Z"/><path fill="#62EEB2" fill-opacity=".42" stroke="None" d="M199 113c0 .01 1 0 1 0v-8c-1.82 1.71-.95 5.47-1 8Z"/><path fill="#0A5C31" stroke="None" d="M54 110c5.51-1.86 18.73.72 24 0s20.43-.89 20 2c1.36-.42 2.33-1.8 3-3-13.89 3.8-34.4-5.51-47 1Z"/><path stroke="None" d="M98 112c.43-2.89-14.73-2.72-20-2s-18.49-1.86-24 0c-5.93 4.49-2.17 15.11-3 23s.62 17.92 0 26c15.47-15.43 33.19-30.33 47-47Z"/><path fill="none" stroke="None" d="M0 200h87c-20.35-2.79-39.01-12.34-55-26-2.22-1.9-4.15-3.83-6-6-13.62-15.93-23.22-34.64-26-55zm174-32c-1.9 2.22-3.83 4.15-6 6-15.93 13.62-34.64 23.22-55 26h87v-87s-1 .01-1 0c-.41 20.66-11.86 39.63-25 55Z"/><path fill="#B4FAE2" fill-opacity=".06" stroke="None" d="m32 174-6-6c1.85 2.17 3.78 4.1 6 6Z"/><path fill="#B6FAE2" fill-opacity=".06" stroke="None" d="M168 174c2.17-1.85 4.1-3.78 6-6z"/></svg>

<svg xmlns="http://www.w3.org/2000/svg" xmlns:v="https://svgstorm.com"
viewBox = "0 0 200 200"
width="200"
height="200">
<g fill="None" fill-opacity="0.0" stroke="#000000" stroke-opacity="0.00" stroke-width="0.3"><path d="
M 0.00 87.00 
C 2.78 66.64 12.38 47.93 26.00 32.00
C 27.90 29.78 29.83 27.85 32.00 26.00
C 47.99 12.34 66.65 2.79 87.00 0.00
L 0.00 0.00
L 0.00 87.00 Z"/>
</g>
<g fill="None" fill-opacity="0.0" stroke="#0DF38D" stroke-opacity="0.99" stroke-width="0.3"><path d="
M 32.00 26.00 
C 30.08 27.92 27.88 30.12 26.00 32.00
C 12.38 47.93 2.78 66.64 0.00 87.00
L 0.00 113.00
C 2.78 133.36 12.38 152.07 26.00 168.00
C 27.92 169.92 30.12 172.12 32.00 174.00
C 47.99 187.66 66.65 197.21 87.00 200.00
L 113.00 200.00
C 133.36 197.22 152.07 187.62 168.00 174.00
C 169.92 172.08 172.12 169.88 174.00 168.00
C 187.14 152.63 198.59 133.66 199.00 113.00
C 199.05 110.47 198.18 106.71 200.00 105.00
L 200.00 87.00
C 197.22 66.63 187.63 47.95 174.00 32.00
C 172.08 30.08 169.88 27.88 168.00 26.00
C 152.03 12.35 133.34 2.79 113.00 0.00
L 87.00 0.00
C 66.65 2.79 47.99 12.34 32.00 26.00
M 79.00 99.00 
C 75.62 101.12 74.04 101.45 71.00 98.00
C 66.78 93.21 62.13 79.78 59.69 74.31 C 57.26 68.83 44.90 53.96 55.08 51.08 C 65.27 48.20 79.95 52.44 91.00 51.00 C 102.05 49.56 115.71 52.08 127.00 51.00
C 111.74 67.51 95.51 83.75 79.00 99.00
M 108.00 100.00 
C 103.02 101.51 96.68 100.95 91.00 101.00
C 90.73 99.72 91.77 98.28 93.00 98.00
C 100.01 86.31 112.59 80.91 121.08 70.08 C 129.57 59.25 142.30 46.27 159.00 51.00
C 151.50 59.81 142.78 68.16 134.25 76.25 C 125.72 84.33 118.59 94.77 108.00 100.00
M 98.00 112.00 
C 84.19 128.67 66.47 143.57 51.00 159.00
C 51.62 150.92 50.17 140.89 51.00 133.00 C 51.83 125.11 48.07 114.49 54.00 110.00
C 66.60 103.49 87.11 112.80 101.00 109.00
C 100.33 110.20 99.36 111.58 98.00 112.00 Z"/>
</g>
<g fill="None" fill-opacity="0.0" stroke="#000000" stroke-opacity="0.00" stroke-width="0.3"><path d="
M 168.00 26.00 
C 170.22 27.90 172.15 29.83 174.00 32.00
C 187.63 47.95 197.22 66.63 200.00 87.00
L 200.00 0.00
L 113.00 0.00
C 133.34 2.79 152.03 12.35 168.00 26.00 Z"/>
</g>
<g fill="None" fill-opacity="0.0" stroke="#B8FAE2" stroke-opacity="0.06" stroke-width="0.3"><path d="
M 26.00 32.00 
C 27.88 30.12 30.08 27.92 32.00 26.00
C 29.83 27.85 27.90 29.78 26.00 32.00 Z"/>
</g>
<g fill="None" fill-opacity="0.0" stroke="#B8FAE2" stroke-opacity="0.06" stroke-width="0.3"><path d="
M 174.00 32.00 
C 172.15 29.83 170.22 27.90 168.00 26.00
C 169.88 27.88 172.08 30.08 174.00 32.00 Z"/>
</g>
<g fill="None" fill-opacity="0.0" stroke="#000000" stroke-opacity="1.00" stroke-width="0.3"><path d="
M 71.00 98.00 
C 73.49 100.13 76.19 100.15 79.00 99.00
C 95.51 83.75 111.74 67.51 127.00 51.00
C 115.71 52.08 102.05 49.56 91.00 51.00 C 79.95 52.44 65.27 48.20 55.08 51.08 C 44.90 53.96 57.26 68.83 59.69 74.31 C 62.13 79.78 66.78 93.21 71.00 98.00 Z"/>
</g>
<g fill="None" fill-opacity="0.0" stroke="#010201" stroke-opacity="1.00" stroke-width="0.3"><path d="
M 93.00 98.00 
C 92.48 101.09 104.20 100.64 108.00 100.00
C 118.59 94.77 125.72 84.33 134.25 76.25 C 142.78 68.16 151.50 59.81 159.00 51.00
C 142.30 46.27 129.57 59.25 121.08 70.08 C 112.59 80.91 100.01 86.31 93.00 98.00 Z"/>
</g>
<g fill="None" fill-opacity="0.0" stroke="#0F6E40" stroke-opacity="1.00" stroke-width="0.3"><path d="
M 79.00 99.00 
C 76.19 100.15 73.49 100.13 71.00 98.00
C 74.04 101.45 75.62 101.12 79.00 99.00 Z"/>
</g>
<g fill="None" fill-opacity="0.0" stroke="#0F693D" stroke-opacity="1.00" stroke-width="0.3"><path d="
M 108.00 100.00 
C 104.20 100.64 92.48 101.09 93.00 98.00
C 91.77 98.28 90.73 99.72 91.00 101.00
C 96.68 100.95 103.02 101.51 108.00 100.00 Z"/>
</g>
<g fill="None" fill-opacity="0.0" stroke="#62EEB2" stroke-opacity="0.42" stroke-width="0.3"><path d="
M 199.00 113.00 
C 199.00 113.01 200.00 113.00 200.00 113.00
L 200.00 105.00
C 198.18 106.71 199.05 110.47 199.00 113.00 Z"/>
</g>
<g fill="None" fill-opacity="0.0" stroke="#0A5C31" stroke-opacity="1.00" stroke-width="0.3"><path d="
M 54.00 110.00 
C 59.51 108.14 72.73 110.72 78.00 110.00 C 83.27 109.28 98.43 109.11 98.00 112.00
C 99.36 111.58 100.33 110.20 101.00 109.00
C 87.11 112.80 66.60 103.49 54.00 110.00 Z"/>
</g>
<g fill="None" fill-opacity="0.0" stroke="#000000" stroke-opacity="1.00" stroke-width="0.3"><path d="
M 98.00 112.00 
C 98.43 109.11 83.27 109.28 78.00 110.00 C 72.73 110.72 59.51 108.14 54.00 110.00
C 48.07 114.49 51.83 125.11 51.00 133.00 C 50.17 140.89 51.62 150.92 51.00 159.00
C 66.47 143.57 84.19 128.67 98.00 112.00 Z"/>
</g>
<g fill="None" fill-opacity="0.0" stroke="#000000" stroke-opacity="0.00" stroke-width="0.3"><path d="
M 0.00 200.00 
L 87.00 200.00
C 66.65 197.21 47.99 187.66 32.00 174.00
C 29.78 172.10 27.85 170.17 26.00 168.00
C 12.38 152.07 2.78 133.36 0.00 113.00
L 0.00 200.00 Z"/>
</g>
<g fill="None" fill-opacity="0.0" stroke="#000000" stroke-opacity="0.00" stroke-width="0.3"><path d="
M 174.00 168.00 
C 172.10 170.22 170.17 172.15 168.00 174.00
C 152.07 187.62 133.36 197.22 113.00 200.00
L 200.00 200.00
L 200.00 113.00
C 200.00 113.00 199.00 113.01 199.00 113.00
C 198.59 133.66 187.14 152.63 174.00 168.00 Z"/>
</g>
<g fill="None" fill-opacity="0.0" stroke="#B4FAE2" stroke-opacity="0.06" stroke-width="0.3"><path d="
M 32.00 174.00 
C 30.12 172.12 27.92 169.92 26.00 168.00
C 27.85 170.17 29.78 172.10 32.00 174.00 Z"/>
</g>
<g fill="None" fill-opacity="0.0" stroke="#B6FAE2" stroke-opacity="0.06" stroke-width="0.3"><path d="
M 168.00 174.00 
C 170.17 172.15 172.10 170.22 174.00 168.00
C 172.12 169.88 169.92 172.08 168.00 174.00 Z"/>
</g>
<g fill="#000000" fill-opacity="0.00" stroke="None">
<path d="
M 0.00 87.00 
C 2.78 66.64 12.38 47.93 26.00 32.00
C 27.90 29.78 29.83 27.85 32.00 26.00
C 47.99 12.34 66.65 2.79 87.00 0.00
L 0.00 0.00
L 0.00 87.00 Z"/>
</g>
<g fill="#0DF38D" fill-opacity="0.99" stroke="None">
<path d="
M 32.00 26.00 
C 30.08 27.92 27.88 30.12 26.00 32.00
C 12.38 47.93 2.78 66.64 0.00 87.00
L 0.00 113.00
C 2.78 133.36 12.38 152.07 26.00 168.00
C 27.92 169.92 30.12 172.12 32.00 174.00
C 47.99 187.66 66.65 197.21 87.00 200.00
L 113.00 200.00
C 133.36 197.22 152.07 187.62 168.00 174.00
C 169.92 172.08 172.12 169.88 174.00 168.00
C 187.14 152.63 198.59 133.66 199.00 113.00
C 199.05 110.47 198.18 106.71 200.00 105.00
L 200.00 87.00
C 197.22 66.63 187.63 47.95 174.00 32.00
C 172.08 30.08 169.88 27.88 168.00 26.00
C 152.03 12.35 133.34 2.79 113.00 0.00
L 87.00 0.00
C 66.65 2.79 47.99 12.34 32.00 26.00
M 79.00 99.00 
C 75.62 101.12 74.04 101.45 71.00 98.00
C 66.78 93.21 62.13 79.78 59.69 74.31 C 57.26 68.83 44.90 53.96 55.08 51.08 C 65.27 48.20 79.95 52.44 91.00 51.00 C 102.05 49.56 115.71 52.08 127.00 51.00
C 111.74 67.51 95.51 83.75 79.00 99.00
M 108.00 100.00 
C 103.02 101.51 96.68 100.95 91.00 101.00
C 90.73 99.72 91.77 98.28 93.00 98.00
C 100.01 86.31 112.59 80.91 121.08 70.08 C 129.57 59.25 142.30 46.27 159.00 51.00
C 151.50 59.81 142.78 68.16 134.25 76.25 C 125.72 84.33 118.59 94.77 108.00 100.00
M 98.00 112.00 
C 84.19 128.67 66.47 143.57 51.00 159.00
C 51.62 150.92 50.17 140.89 51.00 133.00 C 51.83 125.11 48.07 114.49 54.00 110.00
C 66.60 103.49 87.11 112.80 101.00 109.00
C 100.33 110.20 99.36 111.58 98.00 112.00 Z"/>
</g>
<g fill="#000000" fill-opacity="0.00" stroke="None">
<path d="
M 168.00 26.00 
C 170.22 27.90 172.15 29.83 174.00 32.00
C 187.63 47.95 197.22 66.63 200.00 87.00
L 200.00 0.00
L 113.00 0.00
C 133.34 2.79 152.03 12.35 168.00 26.00 Z"/>
</g>
<g fill="#B8FAE2" fill-opacity="0.06" stroke="None">
<path d="
M 26.00 32.00 
C 27.88 30.12 30.08 27.92 32.00 26.00
C 29.83 27.85 27.90 29.78 26.00 32.00 Z"/>
</g>
<g fill="#B8FAE2" fill-opacity="0.06" stroke="None">
<path d="
M 174.00 32.00 
C 172.15 29.83 170.22 27.90 168.00 26.00
C 169.88 27.88 172.08 30.08 174.00 32.00 Z"/>
</g>
<g fill="#000000" fill-opacity="1.00" stroke="None">
<path d="
M 71.00 98.00 
C 73.49 100.13 76.19 100.15 79.00 99.00
C 95.51 83.75 111.74 67.51 127.00 51.00
C 115.71 52.08 102.05 49.56 91.00 51.00 C 79.95 52.44 65.27 48.20 55.08 51.08 C 44.90 53.96 57.26 68.83 59.69 74.31 C 62.13 79.78 66.78 93.21 71.00 98.00 Z"/>
</g>
<g fill="#010201" fill-opacity="1.00" stroke="None">
<path d="
M 93.00 98.00 
C 92.48 101.09 104.20 100.64 108.00 100.00
C 118.59 94.77 125.72 84.33 134.25 76.25 C 142.78 68.16 151.50 59.81 159.00 51.00
C 142.30 46.27 129.57 59.25 121.08 70.08 C 112.59 80.91 100.01 86.31 93.00 98.00 Z"/>
</g>
<g fill="#0F6E40" fill-opacity="1.00" stroke="None">
<path d="
M 79.00 99.00 
C 76.19 100.15 73.49 100.13 71.00 98.00
C 74.04 101.45 75.62 101.12 79.00 99.00 Z"/>
</g>
<g fill="#0F693D" fill-opacity="1.00" stroke="None">
<path d="
M 108.00 100.00 
C 104.20 100.64 92.48 101.09 93.00 98.00
C 91.77 98.28 90.73 99.72 91.00 101.00
C 96.68 100.95 103.02 101.51 108.00 100.00 Z"/>
</g>
<g fill="#62EEB2" fill-opacity="0.42" stroke="None">
<path d="
M 199.00 113.00 
C 199.00 113.01 200.00 113.00 200.00 113.00
L 200.00 105.00
C 198.18 106.71 199.05 110.47 199.00 113.00 Z"/>
</g>
<g fill="#0A5C31" fill-opacity="1.00" stroke="None">
<path d="
M 54.00 110.00 
C 59.51 108.14 72.73 110.72 78.00 110.00 C 83.27 109.28 98.43 109.11 98.00 112.00
C 99.36 111.58 100.33 110.20 101.00 109.00
C 87.11 112.80 66.60 103.49 54.00 110.00 Z"/>
</g>
<g fill="#000000" fill-opacity="1.00" stroke="None">
<path d="
M 98.00 112.00 
C 98.43 109.11 83.27 109.28 78.00 110.00 C 72.73 110.72 59.51 108.14 54.00 110.00
C 48.07 114.49 51.83 125.11 51.00 133.00 C 50.17 140.89 51.62 150.92 51.00 159.00
C 66.47 143.57 84.19 128.67 98.00 112.00 Z"/>
</g>
<g fill="#000000" fill-opacity="0.00" stroke="None">
<path d="
M 0.00 200.00 
L 87.00 200.00
C 66.65 197.21 47.99 187.66 32.00 174.00
C 29.78 172.10 27.85 170.17 26.00 168.00
C 12.38 152.07 2.78 133.36 0.00 113.00
L 0.00 200.00 Z"/>
</g>
<g fill="#000000" fill-opacity="0.00" stroke="None">
<path d="
M 174.00 168.00 
C 172.10 170.22 170.17 172.15 168.00 174.00
C 152.07 187.62 133.36 197.22 113.00 200.00
L 200.00 200.00
L 200.00 113.00
C 200.00 113.00 199.00 113.01 199.00 113.00
C 198.59 133.66 187.14 152.63 174.00 168.00 Z"/>
</g>
<g fill="#B4FAE2" fill-opacity="0.06" stroke="None">
<path d="
M 32.00 174.00 
C 30.12 172.12 27.92 169.92 26.00 168.00
C 27.85 170.17 29.78 172.10 32.00 174.00 Z"/>
</g>
<g fill="#B6FAE2" fill-opacity="0.06" stroke="None">
<path d="
M 168.00 174.00 
C 170.17 172.15 172.10 170.22 174.00 168.00
C 172.12 169.88 169.92 172.08 168.00 174.00 Z"/>
</g>
</svg>
